Obsidian-SemiLight/actions/16s/media-seek-backward.svg

<svg viewBox="0 0 16 16" xmlns="http://www.w3.org/2000/svg"><path d="m2 2v12h12v-12zm1 1h10v10h-10zm5 2-4 3 4 3v-3zm0 3 4 3v-6z" fill="#4d4d4d"/></svg>

<svg xmlns="http://www.w3.org/2000/svg" viewBox="0 0 16 16">
  <defs id="defs3051">
    <style type="text/css" id="current-color-scheme">
      .ColorScheme-Text {
        color:#4d4d4d;
      }
      </style>
  </defs>
 <path style="fill:currentColor;fill-opacity:1;stroke:none" 
       d="M 2 2 L 2 14 L 14 14 L 14 2 L 2 2 z M 3 3 L 13 3 L 13 13 L 3 13 L 3 3 z M 8 5 L 4 8 L 8 11 L 8 8 L 8 5 z M 8 8 L 12 11 L 12 5 L 8 8 z "
     class="ColorScheme-Text"
     />
</svg>
